X: 39
T: No_22_Potlatch_Song.krn
N: Derived from No_22_Potlatch_Song.krn
%%abc-version 2.0
%%abcx-abcm2ps-target-version 5.9.1 (29 Sep 2008)
%%abc-creator hum2abc beta
%%abcx-conversion-date 2019/03/15 08:36:13
%%humdrum-veritas 1097747745
%%humdrum-veritas-data 3536446261
%%linebreak <none>
%%barnumbers 0
L: 1/16
M: 3/4
K: B clef=bass
[K:clef=bass][M:3/4]z4z2 z A, A,2A,G, | 
G,7A, A,2G,F, | 
D,2 z G, (3:2:4G,2F,2A,G, G,2G,F, ||  
[M:2/4]D,4z2 z G, ||  
[M:3/4]G,2D,2 B,,2 z D, D,C,E,D, ||  
[M:2/4]D,2B,,2 G,,2B,,2 | 
B,,2B,,2 B,,2B,,2 | 
B,,8 |]  



